src/assets/Google-play-store.svg

<svg width="140" height="42" viewBox="0 0 140 42" fill="none" xmlns="http://www.w3.org/2000/svg">
<mask id="mask0_1750_2240" style="mask-type:luminance" maskUnits="userSpaceOnUse" x="0" y="0" width="140" height="42">
<path fill-rule="evenodd" clip-rule="evenodd" d="M0 0H139.93V42H0V0Z" fill="white"/>
</mask>
<g mask="url(#mask0_1750_2240)">
<path fill-rule="evenodd" clip-rule="evenodd" d="M134.747 42.0001H5.18259C2.33217 42.0001 0 39.6376 0 36.7501V5.25001C0 2.36251 2.33217 0 5.18259 0H134.747C137.598 0 139.93 2.36251 139.93 5.25001V36.7501C139.93 39.6376 137.598 42.0001 134.747 42.0001Z" fill="black"/>
</g>
<path fill-rule="evenodd" clip-rule="evenodd" d="M0 7C0 3.13401 3.13401 0 7 0H132.93C136.796 0 139.93 3.13401 139.93 7V34.3937C139.93 38.2597 136.796 41.3937 132.93 41.3937H6.99999C3.13399 41.3937 0 38.2597 0 34.3937V7Z" fill="black"/>
<path d="M7 0.25H132.93C136.658 0.25 139.68 3.27208 139.68 7V34.3936C139.68 38.1215 136.658 41.1436 132.93 41.1436H7C3.27208 41.1436 0.25 38.1215 0.25 34.3936V7C0.25 3.27208 3.27208 0.25 7 0.25Z" stroke="white" stroke-opacity="0.3" stroke-width="0.5"/>
<path fill-rule="evenodd" clip-rule="evenodd" d="M49.7422 10.7552C49.7422 11.6351 49.4821 12.3355 48.9607 12.8584C48.368 13.48 47.597 13.7908 46.6487 13.7908C45.7402 13.7908 44.9671 13.4758 44.3325 12.8447C43.6957 12.2147 43.3789 11.4325 43.3789 10.5001C43.3789 9.56664 43.6957 8.78543 44.3325 8.15438C44.9671 7.52438 45.7402 7.20938 46.6487 7.20938C47.0987 7.20938 47.5309 7.29758 47.94 7.47293C48.3502 7.64933 48.6785 7.88348 48.925 8.17643L48.3712 8.73083C47.9547 8.23313 47.3809 7.98323 46.6487 7.98323C45.9857 7.98323 45.4129 8.21633 44.9293 8.68253C44.4458 9.14979 44.2045 9.75459 44.2045 10.5001C44.2045 11.2445 44.4458 11.8504 44.9293 12.3166C45.4129 12.7838 45.9857 13.0159 46.6487 13.0159C47.3515 13.0159 47.9369 12.7817 48.4068 12.3124C48.711 12.0068 48.8873 11.5826 48.9334 11.0366H46.6487V10.2796H49.6982C49.7275 10.4444 49.7422 10.6019 49.7422 10.7552Z" fill="white"/>
<path fill-rule="evenodd" clip-rule="evenodd" d="M54.578 8.12427H51.7121V10.1214H54.2958V10.8784H51.7121V12.8755H54.578V13.6504H50.9033V7.35042H54.578V8.12427Z" fill="white"/>
<path fill-rule="evenodd" clip-rule="evenodd" d="M57.9878 13.65H57.179V8.12384H55.4209V7.34999H59.746V8.12384H57.9878V13.65Z" fill="white"/>
<path fill-rule="evenodd" clip-rule="evenodd" d="M62.876 13.65H63.6848V7.34999H62.876V13.65Z" fill="white"/>
<path fill-rule="evenodd" clip-rule="evenodd" d="M67.271 13.65H66.4622V8.12384H64.7041V7.34999H69.0292V8.12384H67.271V13.65Z" fill="white"/>
<path fill-rule="evenodd" clip-rule="evenodd" d="M73.2001 12.308C73.6659 12.7805 74.2355 13.0157 74.91 13.0157C75.5835 13.0157 76.1542 12.7805 76.6199 12.308C77.0857 11.8355 77.3196 11.2328 77.3196 10.4998C77.3196 9.76695 77.0857 9.1632 76.6199 8.69174C76.1542 8.21924 75.5835 7.98299 74.91 7.98299C74.2355 7.98299 73.6659 8.21924 73.2001 8.69174C72.7354 9.1632 72.5015 9.76695 72.5015 10.4998C72.5015 11.2328 72.7354 11.8355 73.2001 12.308ZM77.2167 12.8353C76.5978 13.4726 75.8289 13.7908 74.9089 13.7908C73.9889 13.7908 73.22 13.4726 72.6021 12.8353C71.9832 12.199 71.6748 11.4209 71.6748 10.5001C71.6748 9.57924 71.9832 8.80014 72.6021 8.16383C73.22 7.52753 73.9889 7.20938 74.9089 7.20938C75.8236 7.20938 76.5905 7.52858 77.2125 8.16803C77.8335 8.80748 78.1441 9.58449 78.1441 10.5001C78.1441 11.4209 77.8346 12.199 77.2167 12.8353Z" fill="white"/>
<path fill-rule="evenodd" clip-rule="evenodd" d="M79.2793 13.65V7.34999H80.2633L83.3222 12.2504H83.3579L83.3222 11.0366V7.34999H84.132V13.65H83.2876L80.0881 8.51129H80.0524L80.0881 9.72615V13.65H79.2793Z" fill="white"/>
<path fill-rule="evenodd" clip-rule="evenodd" d="M112.177 31.5H114.134V18.3739H112.177V31.5ZM129.808 23.1024L127.564 28.7934H127.497L125.168 23.1024H123.06L126.553 31.0561L124.561 35.4808H126.602L131.985 23.1024H129.808ZM118.706 30.0091C118.066 30.0091 117.172 29.6878 117.172 28.894C117.172 27.8818 118.286 27.4922 119.248 27.4922C120.107 27.4922 120.513 27.6791 121.035 27.9311C120.883 29.1481 119.837 30.0091 118.706 30.0091ZM118.943 22.8144C117.526 22.8144 116.059 23.4402 115.451 24.8241L117.188 25.5507C117.56 24.8241 118.251 24.5878 118.977 24.5878C119.989 24.5878 121.018 25.1958 121.035 26.2762V26.4117C120.681 26.209 119.921 25.9056 118.994 25.9056C117.12 25.9056 115.214 26.9356 115.214 28.8603C115.214 30.617 116.75 31.7489 118.47 31.7489C119.786 31.7489 120.513 31.1577 120.967 30.4647H121.035V31.478H122.925V26.4453C122.925 24.1153 121.186 22.8144 118.943 22.8144ZM106.846 24.7001H104.062V20.2009H106.846C108.309 20.2009 109.14 21.4126 109.14 22.45C109.14 23.4674 108.309 24.7001 106.846 24.7001ZM106.796 18.3729H102.106V31.5H104.062V26.5272H106.796C108.965 26.5272 111.098 24.9543 111.098 22.4501C111.098 19.9458 108.965 18.3729 106.796 18.3729ZM81.2199 30.0111C79.8678 30.0111 78.7359 28.8781 78.7359 27.322C78.7359 25.7481 79.8678 24.5983 81.2199 24.5983C82.5543 24.5983 83.6022 25.7481 83.6022 27.322C83.6022 28.8781 82.5543 30.0111 81.2199 30.0111ZM83.4669 23.837H83.3998C82.9602 23.313 82.1147 22.8384 81.051 22.8384C78.8198 22.8384 76.7742 24.8009 76.7742 27.3219C76.7742 29.8251 78.8198 31.7708 81.051 31.7708C82.1147 31.7708 82.9602 31.2972 83.3998 30.7554H83.4669V31.398C83.4669 33.1074 82.5543 34.0199 81.0846 34.0199C79.8845 34.0199 79.1408 33.1578 78.8366 32.4302L77.1298 33.141C77.6197 34.3244 78.9205 35.7797 81.0846 35.7797C83.383 35.7797 85.3268 34.4262 85.3268 31.1271V23.1093H83.4669V23.837ZM86.6789 31.5H88.6385V18.3739H86.6789V31.5ZM91.5285 27.1697C91.4781 25.4435 92.8638 24.5646 93.8604 24.5646C94.6388 24.5646 95.2975 24.9542 95.5178 25.5117L91.5285 27.1697ZM97.6127 25.6808C97.2403 24.6833 96.1084 22.8384 93.7933 22.8384C91.4949 22.8384 89.5846 24.6486 89.5846 27.3051C89.5846 29.8083 91.4781 31.7708 94.0125 31.7708C96.057 31.7708 97.2403 30.5192 97.7313 29.7915L96.2102 28.7762C95.7025 29.5206 95.0101 30.011 94.0125 30.011C93.0159 30.011 92.3058 29.5542 91.8505 28.6575L97.8152 26.1879L97.6127 25.6808ZM50.0843 24.2099V26.1041H54.6128C54.4786 27.1699 54.123 27.9479 53.5827 28.4887C52.9229 29.1491 51.8917 29.8768 50.0843 29.8768C47.2949 29.8768 45.1151 27.6266 45.1151 24.8357C45.1151 22.0448 47.2949 19.7936 50.0843 19.7936C51.5885 19.7936 52.6869 20.3858 53.4977 21.1481L54.8331 19.8114C53.7002 18.7289 52.197 17.8994 50.0843 17.8994C46.2638 17.8994 43.0527 21.0126 43.0527 24.8357C43.0527 28.6577 46.2638 31.771 50.0843 31.771C52.1456 31.771 53.7002 31.0937 54.9171 29.8253C56.1675 28.5737 56.5567 26.8139 56.5567 25.3933C56.5567 24.9544 56.5231 24.548 56.4549 24.2099H50.0843ZM61.7053 30.0111C60.3542 30.0111 59.1877 28.8949 59.1877 27.3052C59.1877 25.6977 60.3542 24.5983 61.7053 24.5983C63.0575 24.5983 64.224 25.6977 64.224 27.3052C64.224 28.8949 63.0575 30.0111 61.7053 30.0111ZM61.7051 22.8384C59.2378 22.8384 57.2269 24.7169 57.2269 27.3051C57.2269 29.8766 59.2378 31.7708 61.7051 31.7708C64.1734 31.7708 66.1844 29.8766 66.1844 27.3051C66.1844 24.7169 64.1734 22.8384 61.7051 22.8384ZM71.4757 30.0111C70.1235 30.0111 68.957 28.8949 68.957 27.3052C68.957 25.6977 70.1235 24.5983 71.4757 24.5983C72.8279 24.5983 73.9933 25.6977 73.9933 27.3052C73.9933 28.8949 72.8279 30.0111 71.4757 30.0111ZM71.4755 22.8384C69.0082 22.8384 66.9973 24.7169 66.9973 27.3051C66.9973 29.8766 69.0082 31.7708 71.4755 31.7708C73.9428 31.7708 75.9537 29.8766 75.9537 27.3051C75.9537 24.7169 73.9428 22.8384 71.4755 22.8384Z" fill="white"/>
<mask id="mask1_1750_2240" style="mask-type:luminance" maskUnits="userSpaceOnUse" x="10" y="7" width="15" height="28">
<path fill-rule="evenodd" clip-rule="evenodd" d="M10.9476 7.91501C10.6423 8.23841 10.4619 8.74032 10.4619 9.39027V32.6121C10.4619 33.2631 10.6423 33.764 10.9476 34.0863L11.0242 34.163L24.0214 21.1545V21.0012V20.8479L11.0242 7.83836L10.9476 7.91501Z" fill="white"/>
</mask>
<g mask="url(#mask1_1750_2240)">
<path fill-rule="evenodd" clip-rule="evenodd" d="M10.9476 7.91501C10.6423 8.23841 10.4619 8.74032 10.4619 9.39027V32.6121C10.4619 33.2631 10.6423 33.764 10.9476 34.0863L11.0242 34.163L24.0214 21.1545V21.0012V20.8479L11.0242 7.83836L10.9476 7.91501Z" fill="#00D2FF"/>
</g>
<mask id="mask2_1750_2240" style="mask-type:luminance" maskUnits="userSpaceOnUse" x="24" y="16" width="11" height="10">
<path fill-rule="evenodd" clip-rule="evenodd" d="M24.0215 20.8481V21.0014V21.1547L28.3529 25.4922L28.4515 25.4376L33.5843 22.5186C35.0497 21.6839 35.0497 20.3189 33.5843 19.4852L28.4515 16.5661L28.3539 16.5105L24.0215 20.8481Z" fill="white"/>
</mask>
<g mask="url(#mask2_1750_2240)">
<path fill-rule="evenodd" clip-rule="evenodd" d="M24.0215 20.8481V21.0014V21.1547L28.3529 25.4922L28.4515 25.4376L33.5843 22.5186C35.0497 21.6839 35.0497 20.3189 33.5843 19.4852L28.4515 16.5661L28.3539 16.5105L24.0215 20.8481Z" fill="#FFC802"/>
</g>
<mask id="mask3_1750_2240" style="mask-type:luminance" maskUnits="userSpaceOnUse" x="10" y="21" width="19" height="14">
<path fill-rule="evenodd" clip-rule="evenodd" d="M10.9473 34.0864C11.4298 34.5988 12.2281 34.6629 13.1271 34.1515L28.4511 25.4365L24.0211 21.0013L10.9473 34.0864Z" fill="white"/>
</mask>
<g mask="url(#mask3_1750_2240)">
<path fill-rule="evenodd" clip-rule="evenodd" d="M10.9473 34.0864C11.4298 34.5988 12.2281 34.6629 13.1271 34.1515L28.4511 25.4365L24.0211 21.0013L10.9473 34.0864Z" fill="url(#paint0_linear_1750_2240)"/>
</g>
<mask id="mask4_1750_2240" style="mask-type:luminance" maskUnits="userSpaceOnUse" x="10" y="7" width="19" height="15">
<path fill-rule="evenodd" clip-rule="evenodd" d="M10.9473 7.91512L24.0211 21.0013L28.4511 16.5661L13.1271 7.85107C12.7054 7.61062 12.3057 7.49722 11.9512 7.49722C11.5483 7.49722 11.2032 7.64317 10.9473 7.91512Z" fill="white"/>
</mask>
<g mask="url(#mask4_1750_2240)">
<path fill-rule="evenodd" clip-rule="evenodd" d="M10.9473 7.91512L24.0211 21.0013L28.4511 16.5661L13.1271 7.85107C12.7054 7.61062 12.3057 7.49722 11.9512 7.49722C11.5483 7.49722 11.2032 7.64317 10.9473 7.91512Z" fill="#00F076"/>
</g>
<path fill-rule="evenodd" clip-rule="evenodd" d="M28.3535 25.3384L13.1271 33.9988C12.2753 34.4818 11.5137 34.4503 11.0249 34.0093L10.9473 34.0881L11.0238 34.1637L11.0249 34.1626C11.5137 34.6036 12.2753 34.6362 13.1271 34.1521L28.4511 25.436L28.3535 25.3384Z" fill="black"/>
<path fill-rule="evenodd" clip-rule="evenodd" d="M10.9466 33.9343C10.6414 33.6109 10.4609 33.109 10.4609 32.459V32.6123C10.4609 33.2623 10.6414 33.7642 10.9466 34.0876L11.0243 34.0099L10.9466 33.9343Z" fill="black"/>
<path fill-rule="evenodd" clip-rule="evenodd" d="M33.5829 22.3637L28.3525 25.3383L28.4501 25.436L33.5829 22.517C34.3162 22.1001 34.6823 21.551 34.6823 21.0018C34.6204 21.4985 34.248 21.9857 33.5829 22.3637Z" fill="black"/>
<path fill-rule="evenodd" clip-rule="evenodd" d="M13.1265 8.00398L33.5832 19.638C34.2483 20.016 34.6207 20.5032 34.6826 21.0009C34.6837 20.4518 34.3165 19.9016 33.5832 19.4847L13.1265 7.85068C11.66 7.01698 10.4609 7.70998 10.4609 9.38998V9.54328C10.4609 7.86328 11.66 7.17028 13.1265 8.00398Z" fill="white"/>
<defs>
<linearGradient id="paint0_linear_1750_2240" x1="10.5553" y1="14.2025" x2="-6.17684" y2="42.3448" gradientUnits="userSpaceOnUse">
<stop stop-color="#FF3A44"/>
<stop offset="1" stop-color="#C31162"/>
</linearGradient>
</defs>
</svg>

<svg xmlns="http://www.w3.org/2000/svg" width="140" height="42" fill="none" viewBox="0 0 140 42"><mask id="a" width="140" height="42" x="0" y="0" maskUnits="userSpaceOnUse" style="mask-type:luminance"><path fill="#fff" fill-rule="evenodd" d="M0 0h139.93v42H0z" clip-rule="evenodd"/></mask><g mask="url(#a)"><path fill="#000" fill-rule="evenodd" d="M134.747 42H5.183C2.333 42 0 39.638 0 36.75V5.25C0 2.363 2.332 0 5.183 0h129.564c2.851 0 5.183 2.363 5.183 5.25v31.5c0 2.888-2.332 5.25-5.183 5.25" clip-rule="evenodd"/></g><path fill="#000" fill-rule="evenodd" d="M0 7a7 7 0 0 1 7-7h125.93a7 7 0 0 1 7 7v27.394a7 7 0 0 1-7 7H7a7 7 0 0 1-7-7z" clip-rule="evenodd"/><path stroke="#fff" stroke-opacity=".3" stroke-width=".5" d="M7 .25h125.93A6.75 6.75 0 0 1 139.68 7v27.394a6.75 6.75 0 0 1-6.75 6.75H7a6.75 6.75 0 0 1-6.75-6.75V7A6.75 6.75 0 0 1 7 .25Z"/><path fill="#fff" fill-rule="evenodd" d="M49.742 10.755q0 1.32-.781 2.103-.89.933-2.312.933-1.364 0-2.316-.946-.955-.946-.954-2.345 0-1.4.954-2.346.952-.945 2.316-.945.676 0 1.291.264t.985.703l-.554.555q-.624-.748-1.722-.748-.994 0-1.72.7-.724.7-.724 1.817-.001 1.117.724 1.817.726.7 1.72.699 1.054 0 1.758-.704.456-.457.526-1.275H46.65v-.757h3.05q.043.246.043.475m4.835-2.631h-2.866v1.997h2.584v.757h-2.584v1.998h2.866v.774h-3.675v-6.3h3.675zm3.41 5.526h-.809V8.124h-1.758V7.35h4.325v.774h-1.758zm4.888 0h.809v-6.3h-.809zm4.395 0h-.809V8.124h-1.758V7.35h4.325v.774h-1.758zm5.929-1.342a2.3 2.3 0 0 0 1.71.708q1.011 0 1.71-.708.7-.709.7-1.808t-.7-1.808a2.3 2.3 0 0 0-1.71-.709q-1.011 0-1.71.709-.698.707-.699 1.808 0 1.099.7 1.808m4.017.527q-.929.956-2.308.956-1.38 0-2.307-.956-.928-.954-.927-2.335 0-1.381.927-2.336t2.307-.955q1.371 0 2.303.959t.932 2.332q0 1.38-.927 2.335m2.062.815v-6.3h.983l3.06 4.9h.035l-.036-1.213V7.35h.81v6.3h-.844l-3.2-5.139h-.036l.036 1.215v3.924zm32.897 17.85h1.957V18.374h-1.957zm17.631-8.398-2.244 5.691h-.067l-2.329-5.69h-2.108l3.493 7.953-1.992 4.425h2.041l5.383-12.379zm-11.102 6.907c-.64 0-1.534-.321-1.534-1.115 0-1.012 1.114-1.402 2.076-1.402.859 0 1.265.187 1.787.44a2.374 2.374 0 0 1-2.329 2.077m.237-7.195c-1.417 0-2.884.626-3.492 2.01l1.737.727c.372-.727 1.063-.963 1.789-.963 1.012 0 2.041.608 2.058 1.688v.136c-.354-.203-1.114-.506-2.041-.506-1.874 0-3.78 1.03-3.78 2.954 0 1.757 1.536 2.889 3.256 2.889 1.316 0 2.043-.591 2.497-1.284h.068v1.013h1.89v-5.033c0-2.33-1.739-3.63-3.982-3.63M106.846 24.7h-2.784v-4.5h2.784c1.463 0 2.294 1.213 2.294 2.25 0 1.017-.831 2.25-2.294 2.25m-.05-6.327h-4.69V31.5h1.956v-4.973h2.734c2.169 0 4.302-1.573 4.302-4.077s-2.133-4.077-4.302-4.077M81.22 30.01c-1.352 0-2.484-1.133-2.484-2.689 0-1.574 1.132-2.724 2.484-2.724 1.334 0 2.382 1.15 2.382 2.724 0 1.556-1.048 2.69-2.382 2.69m2.247-6.174H83.4c-.44-.524-1.285-.999-2.349-.999-2.231 0-4.277 1.963-4.277 4.484 0 2.503 2.046 4.449 4.277 4.449 1.064 0 1.91-.474 2.349-1.016h.067v.643c0 1.71-.913 2.622-2.382 2.622-1.2 0-1.944-.862-2.248-1.59l-1.707.711c.49 1.183 1.79 2.639 3.955 2.639 2.298 0 4.242-1.354 4.242-4.653V23.11h-1.86zm3.212 7.663h1.96V18.374h-1.96zm4.85-4.33c-.05-1.727 1.335-2.605 2.331-2.605.779 0 1.438.39 1.658.947zm6.084-1.49c-.373-.997-1.505-2.842-3.82-2.842-2.298 0-4.208 1.81-4.208 4.467 0 2.503 1.893 4.466 4.428 4.466 2.044 0 3.227-1.252 3.718-1.98l-1.52-1.015c-.508.745-1.2 1.235-2.198 1.235-.997 0-1.707-.457-2.163-1.354l5.965-2.47zm-47.529-1.47v1.894h4.529c-.134 1.066-.49 1.844-1.03 2.385-.66.66-1.691 1.388-3.499 1.388-2.79 0-4.969-2.25-4.969-5.041s2.18-5.042 4.97-5.042c1.504 0 2.602.592 3.413 1.354l1.335-1.337C53.7 18.73 52.197 17.9 50.084 17.9c-3.82 0-7.031 3.114-7.031 6.937 0 3.822 3.21 6.935 7.031 6.935 2.062 0 3.616-.677 4.833-1.946 1.25-1.251 1.64-3.011 1.64-4.432 0-.439-.034-.845-.102-1.183zm11.621 5.801c-1.35 0-2.517-1.116-2.517-2.706 0-1.607 1.166-2.707 2.517-2.707 1.352 0 2.519 1.1 2.519 2.707 0 1.59-1.167 2.706-2.519 2.706m0-7.173c-2.467 0-4.478 1.879-4.478 4.467 0 2.572 2.01 4.466 4.478 4.466s4.48-1.894 4.48-4.466c0-2.588-2.012-4.467-4.48-4.467m9.77 7.173c-1.351 0-2.518-1.116-2.518-2.706 0-1.607 1.167-2.707 2.519-2.707s2.517 1.1 2.517 2.707c0 1.59-1.165 2.706-2.517 2.706m0-7.173c-2.467 0-4.478 1.879-4.478 4.467 0 2.572 2.011 4.466 4.478 4.466 2.468 0 4.479-1.894 4.479-4.466 0-2.588-2.011-4.467-4.478-4.467" clip-rule="evenodd"/><mask id="b" width="15" height="28" x="10" y="7" maskUnits="userSpaceOnUse" style="mask-type:luminance"><path fill="#fff" fill-rule="evenodd" d="M10.948 7.915c-.306.323-.486.825-.486 1.475v23.222c0 .651.18 1.152.486 1.474l.076.077 12.997-13.008v-.307L11.024 7.838z" clip-rule="evenodd"/></mask><g mask="url(#b)"><path fill="#00d2ff" fill-rule="evenodd" d="M10.948 7.915c-.306.323-.486.825-.486 1.475v23.222c0 .651.18 1.152.486 1.474l.076.077 12.997-13.008v-.307L11.024 7.838z" clip-rule="evenodd"/></g><mask id="c" width="11" height="10" x="24" y="16" maskUnits="userSpaceOnUse" style="mask-type:luminance"><path fill="#fff" fill-rule="evenodd" d="M24.022 20.848v.307l4.33 4.337.1-.054 5.132-2.92c1.466-.834 1.466-2.2 0-3.033l-5.133-2.919-.097-.055z" clip-rule="evenodd"/></mask><g mask="url(#c)"><path fill="#ffc802" fill-rule="evenodd" d="M24.022 20.848v.307l4.33 4.337.1-.054 5.132-2.92c1.466-.834 1.466-2.2 0-3.033l-5.133-2.919-.097-.055z" clip-rule="evenodd"/></g><mask id="d" width="19" height="14" x="10" y="21" maskUnits="userSpaceOnUse" style="mask-type:luminance"><path fill="#fff" fill-rule="evenodd" d="M10.947 34.086c.483.513 1.281.577 2.18.066l15.324-8.716-4.43-4.435z" clip-rule="evenodd"/></mask><g mask="url(#d)"><path fill="url(#e)" fill-rule="evenodd" d="M10.947 34.086c.483.513 1.281.577 2.18.066l15.324-8.716-4.43-4.435z" clip-rule="evenodd"/></g><mask id="f" width="19" height="15" x="10" y="7" maskUnits="userSpaceOnUse" style="mask-type:luminance"><path fill="#fff" fill-rule="evenodd" d="m10.947 7.915 13.074 13.086 4.43-4.435-15.324-8.715c-.422-.24-.821-.354-1.176-.354-.403 0-.748.146-1.004.418" clip-rule="evenodd"/></mask><g mask="url(#f)"><path fill="#00f076" fill-rule="evenodd" d="m10.947 7.915 13.074 13.086 4.43-4.435-15.324-8.715c-.422-.24-.821-.354-1.176-.354-.403 0-.748.146-1.004.418" clip-rule="evenodd"/></g><path fill="#000" fill-rule="evenodd" d="m28.354 25.338-15.227 8.66c-.852.484-1.613.452-2.102.011l-.078.08.077.075v-.001c.49.44 1.251.473 2.103-.01l15.324-8.717zm-17.407 8.596c-.306-.323-.486-.825-.486-1.475v.153c0 .65.18 1.152.486 1.476l.077-.078z" clip-rule="evenodd"/><path fill="#000" fill-rule="evenodd" d="m33.583 22.364-5.23 2.974.097.098 5.133-2.919c.733-.417 1.1-.966 1.1-1.515-.063.497-.435.984-1.1 1.362" clip-rule="evenodd"/><path fill="#fff" fill-rule="evenodd" d="m13.127 8.004 20.456 11.634c.665.378 1.038.865 1.1 1.363 0-.55-.367-1.1-1.1-1.516L13.127 7.85c-1.467-.833-2.667-.14-2.667 1.54v.153c0-1.68 1.199-2.373 2.665-1.539" clip-rule="evenodd"/><defs><linearGradient id="e" x1="10.555" x2="-6.177" y1="14.203" y2="42.345" gradientUnits="userSpaceOnUse"><stop stop-color="#ff3a44"/><stop offset="1" stop-color="#c31162"/></linearGradient></defs></svg>
